giving/defaults.svg

<svg xmlns="http://www.w3.org/2000/svg" viewBox="0 0 16 16"><defs><style>.cls-1{fill:#231f20}</style></defs><title>defaults</title><g id="Layer_1" data-name="Layer 1"><path class="cls-1" d="M3.112 6.652a2.044 2.044 0 1 1 2.044-2.044 2.046 2.046 0 0 1-2.044 2.044zm0-3.588a1.544 1.544 0 1 0 1.544 1.544 1.545 1.545 0 0 0-1.544-1.544zm4.833 10.354a2.044 2.044 0 1 1 2.044-2.044 2.046 2.046 0 0 1-2.044 2.044zm0-3.588a1.544 1.544 0 1 0 1.544 1.544A1.545 1.545 0 0 0 7.945 9.83zm4.833-.278a2.044 2.044 0 1 1 2.044-2.044 2.046 2.046 0 0 1-2.044 2.044zm0-3.588a1.544 1.544 0 1 0 1.544 1.544 1.545 1.545 0 0 0-1.544-1.544z"/><path class="cls-1" d="M3.112 2.814a1.779 1.779 0 0 1 .75.169V1.25a.75.75 0 0 0-1.5 0v1.733a1.779 1.779 0 0 1 .75-.169zm0 3.586a1.779 1.779 0 0 1-.75-.169v8.491a.75.75 0 0 0 1.5 0V6.233a1.779 1.779 0 0 1-.75.167zm4.833 3.18a1.779 1.779 0 0 1 .75.169V1.25a.75.75 0 0 0-1.5 0v8.5a1.779 1.779 0 0 1 .75-.17zm0 3.588A1.779 1.779 0 0 1 7.2 13v1.724a.75.75 0 0 0 1.5 0V13a1.779 1.779 0 0 1-.755.168zm4.833-7.454a1.779 1.779 0 0 1 .75.169V1.25a.75.75 0 0 0-1.5 0v4.633a1.779 1.779 0 0 1 .75-.169zm0 3.586a1.779 1.779 0 0 1-.75-.169v5.591a.75.75 0 0 0 1.5 0V9.133a1.779 1.779 0 0 1-.75.167z"/></g></svg>

<svg xmlns="http://www.w3.org/2000/svg" viewBox="0 0 16 16"><defs><style>.cls-1{fill:#231f20;}</style></defs><title>defaults</title><g id="Layer_1" data-name="Layer 1"><path class="cls-1" d="M3.112,6.652A2.044,2.044,0,1,1,5.156,4.608,2.046,2.046,0,0,1,3.112,6.652Zm0-3.588A1.544,1.544,0,1,0,4.656,4.608,1.545,1.545,0,0,0,3.112,3.064Z"/><path class="cls-1" d="M7.945,13.418a2.044,2.044,0,1,1,2.044-2.044A2.046,2.046,0,0,1,7.945,13.418Zm0-3.588a1.544,1.544,0,1,0,1.544,1.544A1.545,1.545,0,0,0,7.945,9.83Z"/><path class="cls-1" d="M12.778,9.552a2.044,2.044,0,1,1,2.044-2.044A2.046,2.046,0,0,1,12.778,9.552Zm0-3.588a1.544,1.544,0,1,0,1.544,1.544A1.545,1.545,0,0,0,12.778,5.964Z"/><path class="cls-1" d="M3.112,2.814a1.779,1.779,0,0,1,.75.169V1.25a.75.75,0,0,0-1.5,0V2.983A1.779,1.779,0,0,1,3.112,2.814Z"/><path class="cls-1" d="M3.112,6.4a1.779,1.779,0,0,1-.75-.169v8.491a.75.75,0,0,0,1.5,0V6.233A1.779,1.779,0,0,1,3.112,6.4Z"/><path class="cls-1" d="M7.945,9.58a1.779,1.779,0,0,1,.75.169V1.25a.75.75,0,0,0-1.5,0v8.5A1.779,1.779,0,0,1,7.945,9.58Z"/><path class="cls-1" d="M7.945,13.168A1.779,1.779,0,0,1,7.2,13v1.724a.75.75,0,0,0,1.5,0V13A1.779,1.779,0,0,1,7.945,13.168Z"/><path class="cls-1" d="M12.778,5.714a1.779,1.779,0,0,1,.75.169V1.25a.75.75,0,0,0-1.5,0V5.883A1.779,1.779,0,0,1,12.778,5.714Z"/><path class="cls-1" d="M12.778,9.3a1.779,1.779,0,0,1-.75-.169v5.591a.75.75,0,0,0,1.5,0V9.133A1.779,1.779,0,0,1,12.778,9.3Z"/></g></svg>
